Origami/22x22/apps/qtqr.svg

<svg width="22" height="22" version="1" xmlns="http://www.w3.org/2000/svg">
 <rect transform="matrix(0,-1,-1,0,0,0)" x="-21" y="-21" width="20" height="20" rx="1" ry="1" style="fill:#c2352a"/>
 <path d="m2 1c-0.554 0-1 0.446-1 1v0.5c0-0.554 0.446-1 1-1h18c0.554 0 1 0.446 1 1v-0.5c0-0.554-0.446-1-1-1z" style="fill:#ffffff;opacity:.2"/>
 <path d="m2 21.5c-0.554 0-1-0.446-1-1v-0.5c0 0.554 0.446 1 1 1h18c0.554 0 1-0.446 1-1v0.5c0 0.554-0.446 1-1 1z" style="opacity:.2"/>
 <path d="m19 3v6h-6v-6zm-8 0v1h-1v-1zm0 1h1v2h-1v1h-1v-2h1zm0 3h1v2h-1zm0 2v1h-1v-1zm-1 1v2h-2v-1h1v-1zm-2 1h-2v-1h2zm-2 0v1h-3v-2h2v1zm4 1h2v2h-1v-1h-1zm2 2h1v1h-1zm0 1v2h-1v-1h-1v-1zm-1 2v2h-1v-2zm1 0h2v2h-2zm2 0v-1h1v1zm1 0h1v2h-1zm0-1v-1h2v1zm2 0h1v1h1v1h-1v1h-1zm-3 0h-1v-1h1zm-1-2v-1h1v1zm1-1v-1h2v2h-1v-1zm0-1h-2v-1h1v-1h1zm-2-1h-1v-1h1zm-3-8v6h-6v-6zm9 1h-4v4h4zm-10 0h-4v4h4zm9 1v2h-2v-2zm-10 0v2h-2v-2zm11 5v1h1v1h-2v-1h-2v-1h2zm1 3v2h-1v-1h-1v-1h1zm-10 0v6h-6v-6zm-1 1h-4v4h4zm-1 1v2h-2v-2z" style="opacity:.5"/>
</svg>

<svg xmlns="http://www.w3.org/2000/svg" width="22" height="22" version="1">
 <rect style="fill:#c2352a" width="20" height="20" x="-21" y="-21" rx="1" ry="1" transform="matrix(0,-1,-1,0,0,0)"/>
 <path style="opacity:0.2;fill:#ffffff" d="M 2,1 C 1.446,1 1,1.446 1,2 v 0.5 c 0,-0.554 0.446,-1 1,-1 h 18 c 0.554,0 1,0.446 1,1 V 2 C 21,1.446 20.554,1 20,1 Z"/>
 <path style="opacity:0.2" d="m 2,21.5 c -0.554,0 -1,-0.446 -1,-1 V 20 c 0,0.554 0.446,1 1,1 h 18 c 0.554,0 1,-0.446 1,-1 v 0.5 c 0,0.554 -0.446,1 -1,1 z"/>
 <path style="opacity:0.5" d="M 19,3 V 9 H 13 V 3 Z M 11,3 V 4 H 10 V 3 Z m 0,1 h 1 V 6 H 11 V 7 H 10 V 5 h 1 z m 0,3 h 1 v 2 h -1 z m 0,2 v 1 H 10 V 9 Z m -1,1 v 2 H 8 V 11 H 9 V 10 Z M 8,11 H 6 v -1 h 2 z m -2,0 v 1 H 3 v -2 h 2 v 1 z m 4,1 h 2 v 2 h -1 v -1 h -1 z m 2,2 h 1 v 1 h -1 z m 0,1 v 1 1 h -1 v -1 h -1 v -1 z m -1,2 v 2 h -1 v -2 z m 1,0 h 2 v 2 h -2 z m 2,0 v -1 h 1 v 1 z m 1,0 h 1 v 2 h -1 z m 0,-1 v -1 h 2 v 1 z m 2,0 h 1 v 1 h 1 v 1 h -1 v 1 h -1 z m -3,0 h -1 v -1 h 1 z m -1,-2 v -1 h 1 v 1 z m 1,-1 v -1 h 2 v 2 h -1 v -1 z m 0,-1 h -2 v -1 h 1 v -1 h 1 z m -2,-1 h -1 v -1 h 1 z M 9,3 V 9 H 3 V 3 Z m 9,1 h -4 v 4 h 4 z M 8,4 H 4 v 4 h 4 z m 9,1 V 7 H 15 V 5 Z M 7,5 V 7 H 5 V 5 Z m 11,5 v 1 h 1 v 1 h -2 v -1 h -2 v -1 h 2 z m 1,3 v 2 h -1 v -1 h -1 v -1 h 1 z M 9,13 v 6 H 3 V 13 Z M 8,14 H 4 v 4 h 4 z m -1,1 v 2 H 5 v -2 z"/>
</svg>
